src/travel-places/sky-weather/1F327.svg

<svg id="emoji" viewBox="0 0 72 72" xmlns="http://www.w3.org/2000/svg">
  <g id="grid">
    <path fill="#b3b3b3" d="M68,4V68H4V4H68m4-4H0V72H72V0Z"/>
    <path fill="none" stroke="#00a5ff" stroke-miterlimit="10" stroke-width="0.1" d="M12.923,10.9583H59.0769A1.9231,1.9231,0,0,1,61,12.8814V59.0352a1.9231,1.9231,0,0,1-1.9231,1.9231H12.9231A1.9231,1.9231,0,0,1,11,59.0352V12.8813A1.923,1.923,0,0,1,12.923,10.9583Z"/>
    <rect x="16" y="4" rx="2.2537" width="40" height="64" fill="none" stroke="#00a5ff" stroke-miterlimit="10" stroke-width="0.1"/>
    <rect x="16" y="4" rx="2.2537" width="40" height="64" transform="translate(72) rotate(90)" fill="none" stroke="#00a5ff" stroke-miterlimit="10" stroke-width="0.1"/>
    <circle cx="36" cy="36" r="29" fill="none" stroke="#00a5ff" stroke-miterlimit="10" stroke-width="0.1"/>
  </g>
  <g id="color">
    <path fill="#92D3F5" stroke="none" d="M22.3528,51.6738c-0.7516,1.1632-2.1343,1.603-3.0902,0.9854c-0.9559-0.6177-1.1216-2.0613-0.37-3.2245 c0,0,0.8943-1.4257,4.0066-3.0386c0,0,0.6168-0.3534,0.5724,0.3205C23.2802,50.2167,22.3528,51.6738,22.3528,51.6738"/>
    <path fill="#61B2E4" stroke="none" d="M22.8121,46.5382c0.5441,1.6504-0.7227,4.9495-0.7227,4.9495 c-0.9587,1.3692-2.1337,1.5027-3.1418,0.7967C18.9475,52.2845,21.6671,51.3133,22.8121,46.5382"/>
    <path fill="#92D3F5" stroke="none" d="M52.4574,51.6738c-0.7516,1.1632-2.1343,1.603-3.0902,0.9854c-0.9559-0.6177-1.1216-2.0613-0.37-3.2245 c0,0,0.8943-1.4257,4.0066-3.0386c0,0,0.6168-0.3534,0.5724,0.3205C53.3848,50.2167,52.4574,51.6738,52.4574,51.6738"/>
    <path fill="#61B2E4" stroke="none" d="M52.9167,46.5382c0.5441,1.6504-0.7227,4.9495-0.7227,4.9495 c-0.9587,1.3692-2.1337,1.5027-3.1418,0.7967C49.0521,52.2845,51.7717,51.3133,52.9167,46.5382"/>
    <path fill="#92D3F5" stroke="none" d="M37.4051,51.6738c-0.7516,1.1632-2.1343,1.603-3.0902,0.9854c-0.9559-0.6177-1.1216-2.0613-0.37-3.2245 c0,0,0.8943-1.4257,4.0066-3.0386c0,0,0.6168-0.3534,0.5724,0.3205C38.3325,50.2167,37.4051,51.6738,37.4051,51.6738"/>
    <path fill="#61B2E4" stroke="none" d="M37.8644,46.5382c0.5441,1.6504-0.7227,4.9495-0.7227,4.9495 c-0.9587,1.3692-2.1337,1.5027-3.1418,0.7967C33.9998,52.2845,36.7194,51.3133,37.8644,46.5382"/>
    <path fill="#92D3F5" stroke="none" d="M29.3789,59.2449c-0.7516,1.1632-2.1343,1.603-3.0902,0.9854c-0.9559-0.6177-1.1216-2.0613-0.37-3.2245 c0,0,0.8943-1.4257,4.0066-3.0386c0,0,0.6168-0.3534,0.5724,0.3205C30.3063,57.7879,29.3789,59.2449,29.3789,59.2449"/>
    <path fill="#61B2E4" stroke="none" d="M29.8382,54.1094c0.5441,1.6504-0.7227,4.9495-0.7227,4.9495 c-0.9587,1.3692-2.1337,1.5027-3.1418,0.7967C25.9737,59.8556,28.6932,58.8845,29.8382,54.1094"/>
    <path fill="#92D3F5" stroke="none" d="M44.4312,59.2449c-0.7516,1.1632-2.1343,1.603-3.0902,0.9854s-1.1216-2.0613-0.37-3.2245 c0,0,0.8943-1.4257,4.0066-3.0386c0,0,0.6168-0.3534,0.5724,0.3205C45.3586,57.7879,44.4312,59.2449,44.4312,59.2449"/>
    <path fill="#61B2E4" stroke="none" d="M44.8906,54.1094c0.5441,1.6504-0.7227,4.9495-0.7227,4.9495 c-0.9587,1.3692-2.1337,1.5027-3.1418,0.7967C41.026,59.8556,43.7455,58.8845,44.8906,54.1094"/>
    <path fill="#d0cfce" stroke="none" d="M19.2787,22.3171c-0.031,0.3535-0.3174,0.6396-0.6721,0.6775C14.307,23.4552,11,27.6889,11,32.8421 c0,5.4608,3.7871,9.8877,8.4588,9.8877h32.248c5.1325,0,9.2932-4.6783,9.2932-10.4492c0-5.5305-3.8212-10.0575-8.6569-10.4251 c-0.37-0.0281-0.67-0.2871-0.7406-0.6494c-1.0803-5.5472-6.0636-9.7159-11.9553-9.7159c-3.829,0-7.2399,1.7335-9.4549,4.4912 c-0.2164,0.2695-0.5797,0.3929-0.8992,0.2589c-0.8523-0.3575-1.7525-0.5304-2.7597-0.5304 C22.7272,15.7099,19.6031,18.6146,19.2787,22.3171z"/>
  </g>
  <g id="hair"/>
  <g id="skin"/>
  <g id="skin-shadow"/>
  <g id="line">
    <path fill="none" stroke="#000000" stroke-linecap="round" stroke-linejoin="round" stroke-miterlimit="10" stroke-width="1.8" d="M22.3528,51.6738c-0.7516,1.1632-2.1343,1.603-3.0902,0.9854c-0.9559-0.6177-1.1216-2.0613-0.37-3.2245 c0,0,0.8761-1.5078,4.0066-3.0386c0,0,0.6168-0.3534,0.5724,0.3205C23.2802,50.2167,22.3528,51.6738,22.3528,51.6738"/>
    <path fill="none" stroke="#000000" stroke-linecap="round" stroke-linejoin="round" stroke-miterlimit="10" stroke-width="1.8" d="M52.4574,51.6738c-0.7516,1.1632-2.1343,1.603-3.0902,0.9854c-0.9559-0.6177-1.1216-2.0613-0.37-3.2245 c0,0,0.8761-1.5078,4.0066-3.0386c0,0,0.6168-0.3534,0.5724,0.3205C53.3848,50.2167,52.4574,51.6738,52.4574,51.6738"/>
    <path fill="none" stroke="#000000" stroke-linecap="round" stroke-linejoin="round" stroke-miterlimit="10" stroke-width="1.8" d="M37.4051,51.6738c-0.7516,1.1632-2.1343,1.603-3.0902,0.9854c-0.9559-0.6177-1.1216-2.0613-0.37-3.2245 c0,0,0.8761-1.5078,4.0066-3.0386c0,0,0.6168-0.3534,0.5724,0.3205C38.3325,50.2167,37.4051,51.6738,37.4051,51.6738"/>
    <path fill="none" stroke="#000000" stroke-linecap="round" stroke-linejoin="round" stroke-miterlimit="10" stroke-width="1.8" d="M29.3789,59.2449c-0.7516,1.1632-2.1343,1.603-3.0902,0.9854c-0.9559-0.6177-1.1216-2.0613-0.37-3.2245 c0,0,0.8761-1.5078,4.0066-3.0386c0,0,0.6168-0.3534,0.5724,0.3205C30.3063,57.7879,29.3789,59.2449,29.3789,59.2449"/>
    <path fill="none" stroke="#000000" stroke-linecap="round" stroke-linejoin="round" stroke-miterlimit="10" stroke-width="1.8" d="M44.4312,59.2449c-0.7516,1.1632-2.1343,1.603-3.0902,0.9854s-1.1216-2.0613-0.37-3.2245c0,0,0.8761-1.5078,4.0066-3.0386 c0,0,0.6168-0.3534,0.5724,0.3205C45.3586,57.7879,44.4312,59.2449,44.4312,59.2449"/>
    <path fill="none" stroke="#000000" stroke-linecap="round" stroke-linejoin="round" stroke-miterlimit="10" stroke-width="2" d="M19.2787,22.3171c-0.031,0.3535-0.3174,0.6396-0.6721,0.6775C14.307,23.4552,11,27.6889,11,32.8421 c0,5.4608,3.7871,9.8877,8.4588,9.8877h32.248c5.1325,0,9.2932-4.6783,9.2932-10.4492c0-5.5305-3.8212-10.0575-8.6569-10.4251 c-0.37-0.0281-0.67-0.2871-0.7406-0.6494c-1.0803-5.5472-6.0636-9.7159-11.9553-9.7159c-3.829,0-7.2399,1.7335-9.4549,4.4912 c-0.2164,0.2695-0.5797,0.3929-0.8992,0.2589c-0.8523-0.3575-1.7525-0.5304-2.7597-0.5304 C22.7272,15.7099,19.6031,18.6146,19.2787,22.3171z"/>
  </g>
</svg>

<svg viewBox="0 0 72 72" xmlns="http://www.w3.org/2000/svg"><path fill="#b3b3b3" d="M68 4v64H4V4h64m4-4H0v72h72V0z"/><path fill="none" stroke="#00a5ff" stroke-miterlimit="10" stroke-width=".1" d="M12.923 10.958h46.154A1.923 1.923 0 0161 12.881v46.154a1.923 1.923 0 01-1.923 1.923H12.923A1.923 1.923 0 0111 59.035V12.881a1.923 1.923 0 011.923-1.923z"/><rect x="16" y="4" rx="2.254" width="40" height="64" fill="none" stroke="#00a5ff" stroke-miterlimit="10" stroke-width=".1"/><rect x="16" y="4" rx="2.254" width="40" height="64" transform="rotate(90 36 36)" fill="none" stroke="#00a5ff" stroke-miterlimit="10" stroke-width=".1"/><circle cx="36" cy="36" r="29" fill="none" stroke="#00a5ff" stroke-miterlimit="10" stroke-width=".1"/><path d="M22.353 51.674c-.752 1.163-2.135 1.603-3.09.985-.956-.618-1.122-2.061-.37-3.224 0 0 .876-1.508 4.006-3.039 0 0 .617-.353.573.32-.192 3.5-1.12 4.958-1.12 4.958m30.105 0c-.751 1.163-2.134 1.603-3.09.985s-1.121-2.061-.37-3.224c0 0 .876-1.508 4.007-3.039 0 0 .617-.353.572.32-.191 3.5-1.119 4.958-1.119 4.958m-15.052 0c-.752 1.163-2.134 1.603-3.09.985s-1.122-2.061-.37-3.224c0 0 .876-1.508 4.006-3.039 0 0 .617-.353.573.32-.191 3.5-1.119 4.958-1.119 4.958m-8.026 7.571c-.752 1.163-2.134 1.603-3.09.985-.956-.617-1.122-2.061-.37-3.224 0 0 .876-1.508 4.006-3.039 0 0 .617-.353.573.32-.192 3.5-1.12 4.958-1.12 4.958m15.053 0c-.751 1.163-2.134 1.603-3.09.985s-1.122-2.061-.37-3.224c0 0 .876-1.508 4.007-3.039 0 0 .616-.353.572.32-.191 3.5-1.119 4.958-1.119 4.958M19.279 22.317a.756.756 0 01-.672.678c-4.3.46-7.607 4.694-7.607 9.847 0 5.46 3.787 9.888 8.459 9.888h32.248c5.132 0 9.293-4.678 9.293-10.45 0-5.53-3.821-10.057-8.657-10.424a.805.805 0 01-.74-.65c-1.08-5.547-6.064-9.716-11.956-9.716-3.829 0-7.24 1.734-9.455 4.491-.216.27-.58.393-.899.26-.852-.358-1.752-.531-2.76-.531-3.806 0-6.93 2.905-7.254 6.607z" stroke-linecap="round" stroke-miterlimit="10" stroke-width="6" stroke="#fff" fill="none" stroke-linejoin="round"/><path fill="#92D3F5" d="M22.353 51.674c-.752 1.163-2.135 1.603-3.09.985-.956-.618-1.122-2.061-.37-3.224 0 0 .894-1.426 4.006-3.039 0 0 .617-.353.573.32-.192 3.5-1.12 4.958-1.12 4.958"/><path fill="#61B2E4" d="M22.812 46.538c.544 1.65-.723 4.95-.723 4.95-.958 1.369-2.133 1.502-3.141.796 0 0 2.72-.97 3.864-5.746"/><path fill="#92D3F5" d="M52.457 51.674c-.751 1.163-2.134 1.603-3.09.985s-1.121-2.061-.37-3.224c0 0 .894-1.426 4.007-3.039 0 0 .617-.353.572.32-.191 3.5-1.119 4.958-1.119 4.958"/><path fill="#61B2E4" d="M52.917 46.538c.544 1.65-.723 4.95-.723 4.95-.959 1.369-2.134 1.502-3.142.796 0 0 2.72-.97 3.865-5.746"/><path fill="#92D3F5" d="M37.405 51.674c-.752 1.163-2.134 1.603-3.09.985s-1.122-2.061-.37-3.224c0 0 .894-1.426 4.006-3.039 0 0 .617-.353.573.32-.191 3.5-1.119 4.958-1.119 4.958"/><path fill="#61B2E4" d="M37.864 46.538c.545 1.65-.722 4.95-.722 4.95-.959 1.369-2.134 1.502-3.142.796 0 0 2.72-.97 3.864-5.746"/><path fill="#92D3F5" d="M29.379 59.245c-.752 1.163-2.134 1.603-3.09.985-.956-.617-1.122-2.061-.37-3.224 0 0 .894-1.426 4.006-3.039 0 0 .617-.353.573.32-.192 3.5-1.12 4.958-1.12 4.958"/><path fill="#61B2E4" d="M29.838 54.11c.544 1.65-.723 4.949-.723 4.949-.958 1.37-2.133 1.503-3.141.797 0 0 2.72-.971 3.864-5.747"/><path fill="#92D3F5" d="M44.431 59.245c-.751 1.163-2.134 1.603-3.09.985s-1.122-2.061-.37-3.224c0 0 .894-1.426 4.007-3.039 0 0 .616-.353.572.32-.191 3.5-1.119 4.958-1.119 4.958"/><path fill="#61B2E4" d="M44.89 54.11c.545 1.65-.722 4.949-.722 4.949-.959 1.37-2.134 1.503-3.142.797 0 0 2.72-.971 3.865-5.747"/><path fill="#d0cfce" d="M19.279 22.317a.756.756 0 01-.672.678c-4.3.46-7.607 4.694-7.607 9.847 0 5.46 3.787 9.888 8.459 9.888h32.248c5.132 0 9.293-4.678 9.293-10.45 0-5.53-3.821-10.057-8.657-10.424a.805.805 0 01-.74-.65c-1.08-5.547-6.064-9.716-11.956-9.716-3.829 0-7.24 1.734-9.455 4.491-.216.27-.58.393-.899.26-.852-.358-1.752-.531-2.76-.531-3.806 0-6.93 2.905-7.254 6.607z"/><g fill="none" stroke="#000" stroke-linecap="round" stroke-linejoin="round" stroke-miterlimit="10"><path stroke-width="1.8" d="M22.353 51.674c-.752 1.163-2.135 1.603-3.09.985-.956-.618-1.122-2.061-.37-3.224 0 0 .876-1.508 4.006-3.039 0 0 .617-.353.573.32-.192 3.5-1.12 4.958-1.12 4.958m30.105 0c-.751 1.163-2.134 1.603-3.09.985s-1.121-2.061-.37-3.224c0 0 .876-1.508 4.007-3.039 0 0 .617-.353.572.32-.191 3.5-1.119 4.958-1.119 4.958m-15.052 0c-.752 1.163-2.134 1.603-3.09.985s-1.122-2.061-.37-3.224c0 0 .876-1.508 4.006-3.039 0 0 .617-.353.573.32-.191 3.5-1.119 4.958-1.119 4.958m-8.026 7.571c-.752 1.163-2.134 1.603-3.09.985-.956-.617-1.122-2.061-.37-3.224 0 0 .876-1.508 4.006-3.039 0 0 .617-.353.573.32-.192 3.5-1.12 4.958-1.12 4.958m15.053 0c-.751 1.163-2.134 1.603-3.09.985s-1.122-2.061-.37-3.224c0 0 .876-1.508 4.007-3.039 0 0 .616-.353.572.32-.191 3.5-1.119 4.958-1.119 4.958"/><path stroke-width="2" d="M19.279 22.317a.756.756 0 01-.672.678c-4.3.46-7.607 4.694-7.607 9.847 0 5.46 3.787 9.888 8.459 9.888h32.248c5.132 0 9.293-4.678 9.293-10.45 0-5.53-3.821-10.057-8.657-10.424a.805.805 0 01-.74-.65c-1.08-5.547-6.064-9.716-11.956-9.716-3.829 0-7.24 1.734-9.455 4.491-.216.27-.58.393-.899.26-.852-.358-1.752-.531-2.76-.531-3.806 0-6.93 2.905-7.254 6.607z"/></g></svg>
